X:1
T:Tjäna, 87.87
T:Tjäna, 87.87
T:English melody, from Ahnfelt’s Sånger
T:Public Domain Courtesy of the Cyber Hymnal™
C:English melody, from Ahnfelt’s Sånger
Z:Public Domain
Z:Courtesy of the Cyber Hymnal™
%%score ( 1 2 ) ( 3 4 )
L:1/8
Q:1/4=110
M:4/4
K:G
V:1 treble 
V:2 treble 
V:3 bass 
V:4 bass 
V:1
 [DB]3 [DA] [DG]2 [DG]2 | [DA]2 [Fc]2 [GB]2 [FA]2 | [Gd]3 [DG] [DF]2 [DF]2 | %3
 [DG]2 [^CB]2 [DA]3 [=C^A] | [B,B]3 [CF] [DA]2 [DG]2 | [CA]3 E [DG]2 [DF]2 | %6
 [DG]2 [Dd]2 [Ec]3 [EA] | [DG]2 (BA) G4 |] %8
V:2
 x8 | x8 | x8 | x8 | x8 | x3 E x4 | x8 | x2 F2 G4 |] %8
V:3
 [G,,G,]3 [A,,F,] [B,,G,]2 [B,,G,]2 | [D,F,]2 [D,A,]2 [D,D]2 D2 | [B,,D]3 [D,B,] [D,A,]2 [C,A,]2 | %3
 [B,,G,]2 [A,,G,]2 [D,F,]4 | [G,,D,]3 [A,,D,] [B,,D,]2 [B,,D,]2 | [C,E,]3 [C,A,] [D,B,]2 [D,A,]2 | %6
 [B,,G,]2 [B,,G,]2 [C,G,]3 [C,A,] | [D,B,]2 [D,C]2 [G,B,]4 |] %8
V:4
 x8 | x6 (D,C,) | x8 | x8 | x8 | x8 | x8 | x8 |] %8

